!!!!SEGMENT: pl-sa--374-a-viii-14--003_anonim--dziekacc-o-jezu.krn
!!!cenid: 17xx:1235
!!!COM: Anonim
!!!COM-rismid: pe30004985
!!!CDT:
!!!CNT:
!!!OTL:Dziękać o Jezu
!!!PDT:
!!!AGN: Sacred
!!!SMS-siglum: PL-SA
!!!SMS-shelfmark: 374/A VIII 14
!!!SMS-shelfwork: 003 W
!!!NIFC-rismid: 1001077362
!!!ONB-nifc: Planctus 3tius
!!!SMS-variant:
!!!SMS-altvar:
!!!key: a
**kern	**text	**text	**text	**text
*ICvox	*	*	*	*
*clefC1	*	*	*	*
*k[b-]	*	*	*	*
*g:	*	*	*	*
*M2/2	*	*	*	*
*met(c|)	*	*	*	*
=1-	=1-	=1-	=1-	=1-
*2\right	*	*	*	*
!LO:TX:a:t=Planctus 3tius.	!	!	!	!
2dd\	Dzię-	Przez	Tą	Tąś
4g\	-kać	kto-	rę-	nas
4a\	o	-re	-ką	do
=2-	=2-	=2-	=2-	=2-
2b-\	Je-	nam	na-	Xię-
2a\	-zu	iest	-sze	-gi
=3-	=3-	=3-	=3-	=3-
4.g\	za	wro-	grze-	Ży-
*8\left	*	*	*	*
8f#X\	twe	-czny	-chy	-wo-
4g\	Swię-	ży-	ska-	-ta
4cc\	-te	-wot	-zo-	wpi-
=4-	=4-	=4-	=4-	=4-
2b-\	ra-	da-	-wa-	-sa-
2a\	-ny	-ny	-łeś	-łes
=5:|!|:-	=5:|!|:-	=5:|!|:-	=5:|!|:-	=5:|!|:-
!LO:TX:a:i:t=Solo Canto.	!	!	!	!
2gg\	Dzię-	.	.	Z tey
4gg\	-kać	.	.	zdro-
4ff\	ześ	.	.	-wie
=6-	=6-	=6-	=6-	=6-
2ee\	na-	.	.	ska-
2dd\	-sze	.	.	-rby
=7-	=7-	=7-	=7-	=7-
4.b-\	u-	.	.	po-
8b-\	-ga-	.	.	-nie-
4cc\	-sił	.	.	-waż
4dd\	pra-	.	.	bie-
=8-	=8-	=8-	=8-	=8-
2ee-X\	-gnie-	.	.	-rze-
2dd\	-nia	.	.	-my
=9-	=9-	=9-	=9-	=9-
2cc\	zrzo-	.	.	dzie-
4cc\	-deł	.	.	-kić
4b-\	zba-	.	.	da-
=10-	=10-	=10-	=10-	=10-
2a\	-wie-	.	.	-ie-
2g/	-nia	.	.	-my.
=:|!-	=:|!-	=:|!-	=:|!-	=:|!-
*-	*-	*-	*-	*-
!!!system-decoration: [(s1)]
!!!ENC: Andrzej Borzym
!!!END: 2020-11-22
!!!ENC:Julita Ruszuk
!!!END:2022-01-25
